!!!COM: Mozart
!!!OTL: Zwolf Variationen in Eb uber das franzosische Lied 'La belle Francoise' 
!!!Variation: Variation 12a
**function	**harm	**comments	**kern	**kern
*M2/4	*M2/4	*	*staff2	*staff1
*Eb:	*Eb:	*	*clefF4	*clefG2
*tb32	*	*	*k[b-e-a-]	*k[b-e-a-]
*	*	*	*M2/4	*M2/4
*	*	*	*Eb:	*Eb:
=-	=-	=-	=-	=-
2T	2I	T	2E- 2G 2B-	8.b-L 8.g
.	.	.	.	(32ccLL
.	.	.	.	32b-JJJ
.	.	.	.	8a-L)
.	.	.	.	8g'J
=	=	=	=146	=146
2T	2V65	D	2D 2F 2B-	8fL 8a-
.	.	.	.	8fJ 8a-
.	.	.	.	8fL 8a-
.	.	.	.	16ffL
.	.	.	.	16ggJJ
=	=	=	=147	=147
2T	2V7	D	8BB-L 8D	16aa-LL
.	.	.	.	16gg
.	.	.	8BB-J 8D	16ff
.	.	.	.	16ee-JJ
.	.	.	8BB-L 8D	16ddLL
.	.	.	.	16cc
.	.	.	8BB-J 8D	16b-
.	.	.	.	16a-JJ
=	=	=	=148	=148
2T	2I	T	8E-L 8G	8gL
.	.	.	8FJ 8A-	8a-J
.	.	.	8G 8B-	8b-
.	.	.	8r	8r
=	=	=	=149	=149
2T	2I	.	2E- 2G	8.b-L 8.g
.	.	.	.	(32ccLL
.	.	.	.	32b-JJJ
.	.	.	.	8a-L)
.	.	.	.	8g'J
=	=	=	=150	=150
2P	2ii65	.	2AA- 2E- 2F	8ccL
.	.	.	.	8ccJ
.	.	.	.	8ccL
.	.	.	.	16ee-L
.	.	.	.	16ddJJ
=	=	=	=151	=151
2D	2V7	.	4r	16ccLL
.	.	.	.	16b-
.	.	.	.	16a-
.	.	.	.	16gJJ
.	.	.	4BB- 4D 4A-	8fL
.	.	.	.	8b-J
=	=	=	=152	=152
2T	2I	.	8E-L 8G	4e-
.	.	.	8BB-J	.
.	.	.	4EE-	4r
==	==	==	==	==
*-	*-	*-	*-	*-
